X:1
T:Title
%%score { ( 1 3 5 ) | ( 2 4 ) }
L:1/8
M:4/4
K:Eb
V:1 treble nm="Grand Piano"
V:3 treble 
V:5 treble 
V:2 bass 
V:4 bass 
V:1
 z4 z2[Q:1/4=100] [EG][FA] | [GB]2 [_G=A][=GB] [Ge]2 [Bd][Ac] | [GB]2 [_G=A][Gc] [B,=GB]3 [EGB] | %3
 [DFB]2 [FA][EG] [DF]2 [EG][FA] | [EG]6 [EG][FA] | [GB]2 [_G=A][=GB] [Ge]2 [Bd][Ac] | %6
 [GB]2 [_G=A][Gc] [=GB]3 [GB] | B2 FB [=Ae]2 [DFd][EFc] | [DB]8 | [Ge]2 [Bd]>[Ac] [GB]3 [GB] | %10
 c2 B>A G3 G | F2 [FB][FB] c2 cc | [Fd]4 [Ac]2 [Ad]2 | [Ge]2 [Bd]>[Ac] [GB]3 [GB] | %14
 [Ac]2 [B,GB]>[B,FA] [B,EG]3 [B,EG] | z .c3 z4 |[M:3/4] E6 |] %17
V:2
 z4 z2 [E,B,][E,B,] | [E,E]2 [E,E][E,E] [E,B,]2 [E,B,][E,B,] | [E,B,]2 [E,C][E,=A,] E,3 E, | %3
 B,,2 [B,,B,][B,,B,] [B,,B,]2 [B,,B,][B,,B,] | [E,B,]6 [E,B,][E,B,] | %5
 [E,E]2 [E,E][E,E] [E,B,]2 [E,B,][E,B,] | [E,B,]2 [E,C][E,=A,] [E,B,]3 [E,E] | %7
 [F,DF]2 [F,B,D][F,DF] [F,C]2 F,F, | z4 B,4 | [E,B,]2 [E,B,]>[E,B,] [E,B,]3 [E,E] | %10
 [A,EA]2 [G,B,E]>[K:bass][F,B,D] [E,B,E]3 [E,B,E] | [D,B,]2 [D,B,][D,B,] [F,=A,F]2 [F,A,F][F,A,F] | %12
 [B,,B,]6 [B,,B,]2 | [E,B,]2 [E,B,]>[E,B,] [E,B,]3 [E,E] | [E,E]2 E,>E, E,3 E, | z4 z2 .F,2 | %16
[M:3/4] [G,B,]G, A,2 G,2 |] %17
V:3
 x8 | x8 | x8 | x8 | x8 | x8 | x8 | x8 | F6 z2 | x8 | x8 | x8 | x8 | x8 | x8 | %15
 [CEF]E z c [Ec]B-[DB]D |[M:3/4] z B, C2 B,2 |] %17
V:4
 x8 | x8 | x8 | x8 | x8 | x8 | x8 | x8 | B,,2 D,F, z2 A2 | x8 | x7/2[K:bass] x9/2 | x8 | x8 | x8 | %14
 x8 | A,,[A,,A,] [A,,A,]2 [B,,G,][B,,G,]B,,-[B,,A,B,] |[M:3/4] E,6 |] %17
V:5
 x8 | x8 | x8 | x8 | x8 | x8 | x8 | x8 | x8 | x8 | x8 | x8 | x8 | x8 | x8 | z2 E2 z E z2 | %16
[M:3/4] x6 |] %17

